!!!COM:	Bach, Johann Sebastian
!!!CDT:	1685/02/21/-1750/07/28/
!!!OTL@@DE:	Herzliebester Jesu, was hast du verbrochen
!!!SCT:	BWV 245/17
!!!PC#:	111
!!!AGN:	chorale
**kern	**kern	**kern	**kern
*ICvox	*ICvox	*ICvox	*ICvox
*Ibass	*Itenor	*Ialto	*Isoprn
*I"Bass	*I"Tenor	*I"Alto	*I"Soprano
*clefF4	*clefGv2	*clefG2	*clefG2
*k[]	*k[]	*k[]	*k[]
*a:	*a:	*a:	*a:
*M4/4	*M4/4	*M4/4	*M4/4
*met(c)	*met(c)	*met(c)	*met(c)
*MM100	*MM100	*MM100	*MM100
4A	8AL	8cL	4a
.	8BJ	8dJ	.
=1	=1	=1	=1
8AAL	4c	4e	4a
8BBJ	.	.	.
8CL	4c	4e	4a
8DJ	.	.	.
8EL	4B	4e	4g#
8FJ	.	.	.
8EL	4G#	4B	4e
8DJ	.	.	.
=2	=2	=2	=2
8CL	4A	8eL	4a
8DJ	.	8f#J	.
8CL	4d	4g#	4b
8BBJ	.	.	.
8AAL	4e	4a	4cc
8EJ	.	.	.
8AL	4e	4a	4cc
8GnXJ	.	.	.
=3	=3	=3	=3
8FnXL	4f	2a	4dd
8EJ	.	.	.
8FL	4A	.	16ccLL
.	.	.	16bJ
8DJ	.	.	8ccJ
4E;	4e;	4g#;	4b;
4E	4e	4g#	4b
=4	=4	=4	=4
8AL	4e	4a	4cc
8GnXJ	.	.	.
8FL	4B	4gnX	8ddL
8GJ	.	.	16eeL
.	.	.	16ffJJ
8CL	4c	4g	4ee
8DJ	.	.	.
8EL	4A	4f	4cc
8FJ	.	.	.
=5	=5	=5	=5
8DL	4d	4a	4ff
8EJ	.	.	.
8FL	4d	4a	4ff
8GJ	.	.	.
8AL	4c	4a	8eeL
8BJ	.	.	8ddJ
8AL	4c	4e	8ccL
8GJ	.	.	8ddJ
=6	=6	=6	=6
8FL	4c	4a	2dd
8EJ	.	.	.
8FL	4B	4g	.
8GJ	.	.	.
4C;	4e;	4g;	4cc;
4A	4e	4a	4cc
=7	=7	=7	=7
8D#L	8f#L	8aL	4b
8EJ	8eJ	8gJ	.
8F#XL	4c	8gL	4a
8D#J	.	8f#J	.
8EL	4B	4e	8gL
8F#J	.	.	8f#J
8GL	4B	4e	8eL
8F#J	.	.	8f#J
=8	=8	=8	=8
8EL	4B	8eL	4g
8FnXJ	.	8dJ	.
8EL	4B-	8c#L	4g
8DJ	.	8dJ	.
8C#L	4A	4e	4a
8AAJ	.	.	.
8BBL	4A	4e	4g
8C#J	.	.	.
=9	=9	=9	=9
8DL	2A	4e	2f
8EJ	.	.	.
8FL	.	4d	.
8GJ	.	.	.
4A;	4A;	4c#;	4e;
8AL	4cnX	4a	4ee
8GJ	.	.	.
=10	=10	=10	=10
8F#L	8cL	8aL	4dd
8G#J	8BJ	8bJ	.
8AL	4A	8eL	8ccL
8FJ	.	8dJ	8bJ
8DL	4A	4f	2b
8BBJ	.	.	.
4E	4G#X	8eL	.
.	.	8dJ	.
=11	=11	=11	=11
2.AA;	2.E;	2.c#;	2.a;
==	==	==	==
*-	*-	*-	*-
!!!hum2abc: -Q ''
!!!title: @{PC#}. @{OTL@@DE}
!!!YOR1: 371 vierstimmige Choralges&auml;nge von Johann Sebastian Bach, 
!!!YOR2: 4th ed. by Alfred D&ouml;rffel (Leipzig: Breitkopf und H&auml;rtel, 
!!!YOR2: c.1875). 178 pp. Plate "V.A.10".  reprint: J.S. Bach, 371 Four-Part 
!!!YOR4: Chorales (New York: Associated Music Publishers, Inc., c.1940).
!!!SMS: B&H, 4th ed, Alfred D&ouml;rffel, c.1875, plate V.A.10
!!!EED:  Craig Stuart Sapp
!!!EEV:  2009/05/22
